!!!id: bhatk3194s
!!!vol: 3
!!!page: 194
!!!sthayee: Langara ghita maga rokata
!!!raag: bihag
!!!taal: teentaal
!!!tempo: madhyalaya
**kern
!!data: // >N,S  >SM  G  P/  -  P  >S'N  >DN/  >NS'  ND  >mP  -/  >PG  M  P  M/
==1
Bq
4c
cq
4f
4e
[4g
=
4g]
4g
ccq
4b
aq
4b
=
bq
4cc
8b
8a
f#q
2g
=
gq
4e
4f
4g
4f
!!data: // [G  -  S]  -/  >N,S  >RS  N,  -/  >D,P,  -  N,  N,/  S  -  S  M/
==2
2eH
2ch
=
Bq
4c
dq
4c
2B
=
Aq
2G
4B
4B
=
2c
4c
4f
!!data: // >MG  -  -  M/  G  M  >RG  -/  G  M  %P  -/  [M  G  -]  S/
==3
fq
2.e
4f
=
4e
4f
dq
2e
=
4e
4f
2gS
=
4fH
2eh
4c
==
*-
